PortableApps/LibreOfficePortable/App/libreoffice/help/media/icon-themes/cmd/lc_mailmergeexcludeentry.svg

<svg viewBox="0 0 24 24" xmlns="http://www.w3.org/2000/svg"><path d="m3 3v16h1v-14c0-.554.446-1 1-1h10v-1zm2 2v16h8.128906c.338038-1.434718 1.371462-2.597753 2.72461-3.291016-.508743-.608228-.853516-1.361119-.853516-2.208984 0-1.383152.824694-2.5777 2-3.144531v-7.355469z" fill="#fff"/><path d="m3 2c-.554 0-1 .446-1 1v16c0 .554.446 1 1 1h1v1c0 .554.446 1 1 1h8c0-.347709.053059-.678085.128906-1h-8.128906v-1-1-10-4h12v7.355469c.311665-.150311.646742-.252834 1-.304688v-7.050781c0-.554-.446-1-1-1h-1v-1c0-.554-.446-1-1-1zm0 1h12v1h-10c-.554 0-1 .446-1 1v14h-1z" fill="#808080"/><g fill="#4d82b8"><circle cx="18.5" cy="15.5" r="2.5"/><path d="m18.5 18a4.5 4 0 0 0 -4.5 4h1a3.5 3 0 0 1 3.5-3 3.5 3 0 0 1 3.5 3h1a4.5 4 0 0 0 -4.5-4z"/></g></svg>

<svg viewBox="0 0 24 24" xmlns="http://www.w3.org/2000/svg">
  <path
     style="fill:#ffffff"
     d="M 3 3 L 3 19 L 4 19 L 4 5 C 4 4.446 4.446 4 5 4 L 15 4 L 15 3 L 3 3 z M 5 5 L 5 21 L 13.128906 21 C 13.466944 19.565282 14.500368 18.402247 15.853516 17.708984 C 15.344773 17.100756 15 16.347865 15 15.5 C 15 14.116848 15.824694 12.9223 17 12.355469 L 17 5 L 5 5 z "
     />
  <path
     style="fill:#808080"
     d="M 3 2 C 2.446 2 2 2.446 2 3 L 2 19 C 2 19.554 2.446 20 3 20 L 4 20 L 4 21 C 4 21.554 4.446 22 5 22 L 13 22 C 13 21.652291 13.053059 21.321915 13.128906 21 L 5 21 L 5 20 L 5 19 L 5 9 L 5 5 L 17 5 L 17 12.355469 C 17.311665 12.205158 17.646742 12.102635 18 12.050781 L 18 5 C 18 4.446 17.554 4 17 4 L 16 4 L 16 3 C 16 2.446 15.554 2 15 2 L 3 2 z M 3 3 L 15 3 L 15 4 L 5 4 C 4.446 4 4 4.446 4 5 L 4 19 L 3 19 L 3 3 z "
     />
  <circle
     style="fill:#4d82b8"
     cx="18.5"
     cy="15.5"
     r="2.5"
     />
  <path
     style="fill:#4d82b8"
     d="M 18.5,18 A 4.5,4 0 0 0 14,22 h 1 a 3.5,3 0 0 1 3.5,-3 3.5,3 0 0 1 3.5,3 h 1 a 4.5,4 0 0 0 -4.5,-4 z"
     />
</svg>
